icons/speech-bubbles-32.svg

<svg xmlns="http://www.w3.org/2000/svg" viewBox="0 0 32 32"><title>speech-bubbles-32</title><g id="icons"><path d="M8,10H20v1H8Zm0,3v1h8V13Zm0,8.56543V18H5a1.001,1.001,0,0,1-1-1V7A1.001,1.001,0,0,1,5,6H23a1.001,1.001,0,0,1,1,1v7h1V7a2.00229,2.00229,0,0,0-2-2H5A2.00229,2.00229,0,0,0,3,7V17a2.00229,2.00229,0,0,0,2,2H7v4.43457l6-4.0003V18.23242ZM29,17v6a2.00229,2.00229,0,0,1-2,2H26v3.98926L20.58545,25H16a2.00229,2.00229,0,0,1-2-2V17a2.00229,2.00229,0,0,1,2-2H27A2.00229,2.00229,0,0,1,29,17Zm-1,0a1.001,1.001,0,0,0-1-1H16a1.001,1.001,0,0,0-1,1v6a1.001,1.001,0,0,0,1,1h4.91455L25,27.01074V24h2a1.001,1.001,0,0,0,1-1Zm-6.00049,1H18v1h7V18ZM18,22h5V21H18Z"/></g></svg>

<svg xmlns="http://www.w3.org/2000/svg" viewBox="0 0 32 32"><path d="M8 10h12v1H8zm0 3v1h8v-1zm0 8.565V18H5a1.001 1.001 0 01-1-1V7a1.001 1.001 0 011-1h18a1.001 1.001 0 011 1v7h1V7a2.002 2.002 0 00-2-2H5a2.002 2.002 0 00-2 2v10a2.002 2.002 0 002 2h2v4.435l6-4v-1.203zM29 17v6a2.002 2.002 0 01-2 2h-1v3.99L20.585 25H16a2.002 2.002 0 01-2-2v-6a2.002 2.002 0 012-2h11a2.002 2.002 0 012 2zm-1 0a1.001 1.001 0 00-1-1H16a1.001 1.001 0 00-1 1v6a1.001 1.001 0 001 1h4.915L25 27.01V24h2a1.001 1.001 0 001-1zm-6 1h-4v1h7v-1zm-4 4h5v-1h-5z"/></svg>
